lib/healthicons/icons/outline/medications/pills_3.svg

<svg fill="none" height="48" viewBox="0 0 48 48" width="48" xmlns="http://www.w3.org/2000/svg"><g clip-rule="evenodd" fill="#333" fill-rule="evenodd"><path d="m24 21c3.5899 0 6.5-2.9101 6.5-6.5s-2.9101-6.5-6.5-6.5-6.5 2.9101-6.5 6.5 2.9101 6.5 6.5 6.5zm0 2c4.6944 0 8.5-3.8056 8.5-8.5 0-4.69442-3.8056-8.5-8.5-8.5s-8.5 3.80558-8.5 8.5c0 4.6944 3.8056 8.5 8.5 8.5z"/><path d="m24.3845 9.91006c.5504.0461.9592.52964.9131 1.07994l-.6021 7.1874c-.0461.5503-.5296.9591-1.08.913-.5503-.0461-.9591-.5296-.913-1.08l.6021-7.1873c.0461-.5504.5296-.95915 1.0799-.91304z"/><path d="m14.5 40c3.5899 0 6.5-2.9101 6.5-6.5s-2.9101-6.5-6.5-6.5-6.5 2.9101-6.5 6.5 2.9101 6.5 6.5 6.5zm0 2c4.6944 0 8.5-3.8056 8.5-8.5s-3.8056-8.5-8.5-8.5c-4.69442 0-8.5 3.8056-8.5 8.5s3.80558 8.5 8.5 8.5z"/><path d="m17.7571 36.7573c-.3905.3906-1.0236.3906-1.4142 0l-5.1-5.1c-.3905-.3905-.3905-1.0237 0-1.4142.3906-.3905 1.0237-.3905 1.4142 0l5.1 5.1c.3906.3905.3906 1.0237 0 1.4142z"/><path d="m33.5 38c3.5899 0 6.5-2.9101 6.5-6.5s-2.9101-6.5-6.5-6.5-6.5 2.9101-6.5 6.5 2.9101 6.5 6.5 6.5zm0 2c4.6944 0 8.5-3.8056 8.5-8.5s-3.8056-8.5-8.5-8.5-8.5 3.8056-8.5 8.5 3.8056 8.5 8.5 8.5z"/><path d="m37.7588 29.745c.2105.5106-.0329 1.0951-.5435 1.3056l-6.6684 2.7481c-.5107.2104-1.0952-.0329-1.3056-.5436-.2105-.5106.0329-1.0951.5435-1.3055l6.6684-2.7482c.5107-.2104 1.0952.033 1.3056.5436z"/></g></svg>

<svg width="48" height="48" viewBox="0 0 48 48" fill="none" xmlns="http://www.w3.org/2000/svg">
<path fill-rule="evenodd" clip-rule="evenodd" d="M24 21C27.5899 21 30.5 18.0899 30.5 14.5C30.5 10.9101 27.5899 8 24 8C20.4101 8 17.5 10.9101 17.5 14.5C17.5 18.0899 20.4101 21 24 21ZM24 23C28.6944 23 32.5 19.1944 32.5 14.5C32.5 9.80558 28.6944 6 24 6C19.3056 6 15.5 9.80558 15.5 14.5C15.5 19.1944 19.3056 23 24 23Z" fill="#333333"/>
<path fill-rule="evenodd" clip-rule="evenodd" d="M24.3845 9.91006C24.9349 9.95616 25.3437 10.4397 25.2976 10.99L24.6955 18.1774C24.6494 18.7277 24.1659 19.1365 23.6155 19.0904C23.0652 19.0443 22.6564 18.5608 22.7025 18.0104L23.3046 10.8231C23.3507 10.2727 23.8342 9.86395 24.3845 9.91006Z" fill="#333333"/>
<path fill-rule="evenodd" clip-rule="evenodd" d="M14.5 40C18.0899 40 21 37.0899 21 33.5C21 29.9101 18.0899 27 14.5 27C10.9101 27 8 29.9101 8 33.5C8 37.0899 10.9101 40 14.5 40ZM14.5 42C19.1944 42 23 38.1944 23 33.5C23 28.8056 19.1944 25 14.5 25C9.80558 25 6 28.8056 6 33.5C6 38.1944 9.80558 42 14.5 42Z" fill="#333333"/>
<path fill-rule="evenodd" clip-rule="evenodd" d="M17.7571 36.7573C17.3666 37.1479 16.7335 37.1479 16.3429 36.7573L11.2429 31.6573C10.8524 31.2668 10.8524 30.6336 11.2429 30.2431C11.6335 29.8526 12.2666 29.8526 12.6571 30.2431L17.7571 35.3431C18.1477 35.7336 18.1477 36.3668 17.7571 36.7573Z" fill="#333333"/>
<path fill-rule="evenodd" clip-rule="evenodd" d="M33.5 38C37.0899 38 40 35.0899 40 31.5C40 27.9101 37.0899 25 33.5 25C29.9101 25 27 27.9101 27 31.5C27 35.0899 29.9101 38 33.5 38ZM33.5 40C38.1944 40 42 36.1944 42 31.5C42 26.8056 38.1944 23 33.5 23C28.8056 23 25 26.8056 25 31.5C25 36.1944 28.8056 40 33.5 40Z" fill="#333333"/>
<path fill-rule="evenodd" clip-rule="evenodd" d="M37.7588 29.745C37.9693 30.2556 37.7259 30.8401 37.2153 31.0506L30.5469 33.7987C30.0362 34.0091 29.4517 33.7658 29.2413 33.2551C29.0308 32.7445 29.2742 32.16 29.7848 31.9496L36.4532 29.2014C36.9639 28.991 37.5484 29.2344 37.7588 29.745Z" fill="#333333"/>
</svg>
